src/assets/icons/other.svg

<?xml version="1.0" encoding="UTF-8"?>
<svg width="24px" height="26px" viewBox="0 0 24 26" version="1.1" xmlns="http://www.w3.org/2000/svg" xmlns:xlink="http://www.w3.org/1999/xlink">
    <!-- Generator: sketchtool 41.2 (35397) - http://www.bohemiancoding.com/sketch -->
    <title>BEC9776C-3AED-4E7D-9C96-9814D96FEE33</title>
    <desc>Created with sketchtool.</desc>
    <defs></defs>
    <g id="Report" stroke="none" stroke-width="1" fill="none" fill-rule="evenodd">
        <g id="MVP-1.3---Report--Listing" transform="translate(-876.000000, -715.000000)" fill="#333333">
            <g id="Overlay-Report-Listing" transform="translate(97.000000, 186.000000)">
                <g id="Group" transform="translate(461.000000, 262.000000)">
                    <path d="M339.867915,292.058683 C340.192506,292.058683 341.811702,291.913808 341.811702,289.049385 L341.811702,278.912618 C341.811702,272.344098 336.470612,267 329.905851,267 C323.340839,267 318,272.344098 318,278.912618 L318,289.049385 C318,290.160514 318.267694,290.991167 318.795561,291.518784 C319.30814,292.030861 319.870347,292.057179 319.979128,292.057179 L319.97988,292.057179 C321.019324,292.057179 321.525134,291.23931 321.860002,290.698158 C322.155017,290.221422 322.290117,290.051983 322.460558,290.051983 C322.631501,290.051983 322.766601,290.221422 323.061867,290.698158 C323.396484,291.23931 323.902294,292.057179 324.941738,292.057179 C325.98093,292.057179 326.486741,291.23931 326.821609,290.698158 C327.116623,290.221422 327.251723,290.051983 327.422165,290.051983 C327.592857,290.051983 327.727957,290.221422 328.022972,290.698158 C328.35784,291.23931 328.8634,292.057179 329.902843,292.057179 C330.942036,292.057179 331.448097,291.23931 331.782714,290.698158 C332.077979,290.221422 332.213079,290.051983 332.383772,290.051983 C332.554965,290.051983 332.690316,290.221422 332.985581,290.698408 C333.320449,291.23931 333.82651,292.057179 334.865954,292.057179 C335.905147,292.057179 336.411208,291.23931 336.745825,290.698408 C337.040839,290.221422 337.175939,290.051983 337.347133,290.051983 C337.518577,290.051983 337.653928,290.221422 337.949193,290.698408 C338.280802,291.234046 338.780096,292.040386 339.797482,292.056928 C339.816532,292.057931 339.839842,292.058683 339.867915,292.058683 Z M339.228007,289.906857 C338.893139,289.365956 338.386827,288.548086 337.347133,288.548086 C336.30794,288.548086 335.801628,289.365956 335.467011,289.907108 C335.171746,290.383843 335.036646,290.553282 334.865954,290.553282 C334.69476,290.553282 334.559409,290.383843 334.264144,289.906857 C333.929277,289.365956 333.423466,288.548086 332.383772,288.548086 C331.344579,288.548086 330.838518,289.365956 330.503901,289.907108 C330.208886,290.383843 330.073786,290.553282 329.902843,290.553282 C329.732151,290.553282 329.597051,290.383843 329.302036,289.907108 C328.967169,289.365956 328.461609,288.548086 327.422165,288.548086 C326.382972,288.548086 325.877162,289.365956 325.542294,289.907108 C325.24753,290.383843 325.11243,290.553282 324.941738,290.553282 C324.770795,290.553282 324.635695,290.383843 324.34043,289.907108 C324.006063,289.365956 323.500002,288.548086 322.460558,288.548086 C321.421616,288.548086 320.915555,289.365956 320.580938,289.907108 C320.285923,290.383843 320.150823,290.553282 319.978878,290.553282 C319.978627,290.553282 319.898419,290.49463 319.858566,290.454777 C319.751789,290.348251 319.503897,289.997843 319.503897,289.049385 L319.503897,278.912618 C319.503897,273.173246 324.170239,268.503897 329.905851,268.503897 C335.641213,268.503897 340.307805,273.173246 340.307805,278.912618 L340.307805,289.049385 C340.307805,290.117904 340.027077,290.514181 339.876437,290.55228 C339.867163,290.55228 339.857388,290.553282 339.829816,290.553282 C339.658623,290.553282 339.523523,290.383843 339.228007,289.906857 Z M334.853396,275.639211 C333.993418,275.639211 333.296111,276.336518 333.296111,277.196497 C333.296111,278.056475 333.993418,278.753782 334.853396,278.753782 C335.713375,278.753782 336.410681,278.056475 336.410681,277.196497 C336.410681,276.336518 335.713375,275.639211 334.853396,275.639211 Z M324.827416,275.639211 C323.967438,275.639211 323.270131,276.336518 323.270131,277.196497 C323.270131,278.056475 323.967438,278.753782 324.827416,278.753782 C325.687395,278.753782 326.384702,278.056475 326.384702,277.196497 C326.384702,276.336518 325.687395,275.639211 324.827416,275.639211 Z M331.534972,279.27408 L328.276529,279.27408 C327.861203,279.27408 327.52458,279.610702 327.52458,280.026029 C327.52458,280.441355 327.861203,280.777977 328.276529,280.777977 L331.534972,280.777977 C331.950299,280.777977 332.286921,280.441355 332.286921,280.026029 C332.286921,279.610702 331.950299,279.27408 331.534972,279.27408 Z" id="others-copy"></path>
                </g>
            </g>
        </g>
    </g>
</svg>

<svg width="24" height="26" viewBox="0 0 24 26" xmlns="http://www.w3.org/2000/svg"><g id="Report" fill="none" fill-rule="evenodd"><g id="MVP-1.3---Report--Listing" transform="translate(-876 -715)" fill="#333"><g id="Overlay-Report-Listing" transform="translate(97 186)"><g id="Group" transform="translate(461 262)"><path d="M339.868 292.059c.325 0 1.944-.145 1.944-3.01v-10.136c0-6.569-5.341-11.913-11.906-11.913S318 272.344 318 278.913v10.136c0 1.112.268 1.942.796 2.47.512.512 1.074.538 1.183.538 1.04 0 1.546-.818 1.881-1.359.295-.477.43-.646.6-.646.172 0 .307.17.602.646.334.541.84 1.36 1.88 1.36 1.039 0 1.545-.819 1.88-1.36.295-.477.43-.646.6-.646.17 0 .306.17.601.646.335.541.84 1.36 1.88 1.36 1.039 0 1.545-.819 1.88-1.36.295-.477.43-.646.6-.646.172 0 .307.17.603.646.334.541.84 1.36 1.88 1.36s1.545-.819 1.88-1.36c.295-.477.43-.646.601-.646.172 0 .307.17.602.646.332.536.831 1.342 1.848 1.359l.07.002zm-.64-2.152c-.335-.541-.841-1.359-1.88-1.359-1.04 0-1.546.818-1.881 1.36-.295.476-.43.645-.601.645-.171 0-.307-.17-.602-.646-.335-.541-.84-1.359-1.88-1.359s-1.545.818-1.88 1.36c-.295.476-.43.645-.601.645-.17 0-.306-.17-.601-.646-.335-.541-.84-1.359-1.88-1.359-1.039 0-1.545.818-1.88 1.36-.294.476-.43.645-.6.645-.171 0-.306-.17-.602-.646-.334-.541-.84-1.359-1.88-1.359-1.038 0-1.544.818-1.88 1.36-.294.476-.43.645-.601.645 0 0-.08-.058-.12-.098-.107-.107-.355-.457-.355-1.406v-10.136c0-5.74 4.666-10.41 10.402-10.41 5.735 0 10.402 4.67 10.402 10.41v10.136c0 1.069-.28 1.465-.432 1.503l-.046.001c-.171 0-.306-.17-.602-.646zm-4.375-14.268a1.557 1.557 0 1 0 0 3.115 1.557 1.557 0 0 0 0-3.115zm-10.026 0a1.557 1.557 0 1 0 0 3.115 1.557 1.557 0 0 0 0-3.115zm6.708 3.635h-3.258a.752.752 0 1 0 0 1.504h3.258a.752.752 0 1 0 0-1.504z" id="others-copy"/></g></g></g></g></svg>
